!!!OTL: Die Schlangenkoechin.
!!!OTL-incipit: Vater unser der du bist
!!!ARE: Europa, Mitteleuropa, Deutschland
!!!YOR: 4, S. 210
!!    1545 gedruckt in Leipzig
!!!SCT: Q1079K
!!!TXL: @@DE
!!!YEM: Copyright 1995, estate of Helmut Schaffrath.
**kern	**text
*ICvox	*
!! Irregular meter.
*MX	*
*k[b-]	*
*g:	*
!LO:TX:a:t=Babſt 1545	!
{2g	Va-
4a	-ter
4f	un-
4g	-ſer
=1	=1
4b-	der
4cc	du
2a}	biſt,
=2	=2
{4b-	Ky-
4cc	-ri-
2dd	-e-
=3	=3
4cc	-le-
4b-	-i-
4a	-ſon!
8r}	.
{8a	gib
=4	=4
4cc	uns
4a	ʒu
4b-	'rkenn-
4g	-en
=5	=5
4b-	Je-
4cc	-ſum
2a}	Chriſt!
=6	=6
{4g	Va-
4g	-ter
2d}	mein,
{4d	er-
=7	=7
4f	-barm
4g	dich
4a	un-
8a	-ſer
8g	auf
=8	=8
(4b-	Er-
4cc)	.
4dd	-den,
8r}	.
{8cc	daß
=9	=9
4b-	wir
8b-	deine
8b-	.
8cc	liebe
8b-	.
8a	Kinder
8b-	.
=10	=10
(4g	wer-
4f#i)	.
2g}	-den.
==	==
!!!AGN: geistlich, Gebet
!! Melodievergleich zu Q0079A, anderes Lied. Kontrafaktur ?
!!!ONB: ESAC (Essen Associative Code) Database: BALLADE
!!!AMT: irregular
!!!AIN: vox
!!!EED: Helmut Schaffrath
!!!EEV: 1.0
!!!RDF**kern: i = editorial accidental
!!!source: Deutsche Volkslieder mit ihren Melodien. Herausgegeben vom Deutschen Volksliedarchiv. Vierter Band. Berlin 1959.
!!!page: 210
!!!ENC: Anna Maria Matuszewska
!!!EEV: 2025/02/25
*-	*-
